Numix/scalable/actions/document-revert-symbolic.svg

<?xml version="1.0" encoding="UTF-8" standalone="no"?>
<!-- Created with Inkscape (http://www.inkscape.org/) -->

<svg
   xmlns:dc="http://purl.org/dc/elements/1.1/"
   xmlns:cc="http://creativecommons.org/ns#"
   xmlns:rdf="http://www.w3.org/1999/02/22-rdf-syntax-ns#"
   xmlns:svg="http://www.w3.org/2000/svg"
   xmlns="http://www.w3.org/2000/svg"
   xmlns:sodipodi="http://sodipodi.sourceforge.net/DTD/sodipodi-0.dtd"
   xmlns:inkscape="http://www.inkscape.org/namespaces/inkscape"
   sodipodi:docname="document-revert-symbolic.svg"
   inkscape:export-filename="/home/sam/dev/RESOURCES/gnome-icon-theme-symbolic/src/gnome-stencils.png"
   inkscape:export-xdpi="90"
   inkscape:export-ydpi="90"
   height="16"
   id="svg7384"
   version="1.1"
   inkscape:version="0.91 r"
   width="16">
  <metadata
     id="metadata90">
    <rdf:RDF>
      <cc:Work
         rdf:about="">
        <dc:format>image/svg+xml</dc:format>
        <dc:type
           rdf:resource="http://purl.org/dc/dcmitype/StillImage" />
        <dc:title>elementary Symbolic Icon Theme</dc:title>
      </cc:Work>
    </rdf:RDF>
  </metadata>
  <sodipodi:namedview
     inkscape:bbox-nodes="true"
     inkscape:bbox-paths="true"
     bordercolor="#666666"
     borderopacity="1"
     inkscape:current-layer="layer12"
     inkscape:cx="-0.80890639"
     inkscape:cy="29.634585"
     gridtolerance="10"
     inkscape:guide-bbox="true"
     guidetolerance="10"
     id="namedview88"
     inkscape:object-nodes="true"
     inkscape:object-paths="false"
     objecttolerance="10"
     pagecolor="#3a3b39"
     inkscape:pageopacity="1"
     inkscape:pageshadow="2"
     showborder="true"
     showgrid="true"
     showguides="true"
     inkscape:snap-bbox="true"
     inkscape:snap-bbox-edge-midpoints="true"
     inkscape:snap-bbox-midpoints="true"
     inkscape:snap-global="true"
     inkscape:snap-grids="true"
     inkscape:snap-nodes="true"
     inkscape:snap-others="false"
     inkscape:snap-to-guides="true"
     inkscape:window-height="1056"
     inkscape:window-maximized="1"
     inkscape:window-width="1920"
     inkscape:window-x="0"
     inkscape:window-y="24"
     inkscape:zoom="11.313709">
    <inkscape:grid
       dotted="false"
       empspacing="4"
       enabled="true"
       id="grid4866"
       originx="-174.0002px"
       originy="-49px"
       snapvisiblegridlinesonly="true"
       spacingx="1px"
       spacingy="1px"
       type="xygrid"
       visible="true" />
    <inkscape:grid
       color="#000000"
       dotted="true"
       empcolor="#000000"
       empopacity="0.25098039"
       empspacing="4"
       enabled="true"
       id="grid13609"
       opacity="0.1254902"
       originx="-174.0002px"
       originy="-49px"
       snapvisiblegridlinesonly="true"
       spacingx="0.5px"
       spacingy="0.5px"
       type="xygrid"
       visible="true" />
  </sodipodi:namedview>
  <title
     id="title9167">elementary Symbolic Icon Theme</title>
  <defs
     id="defs7386" />
  <g
     inkscape:groupmode="layer"
     id="layer9"
     label="status"
     inkscape:label="status"
     style="display:inline"
     transform="translate(-415.0004,-168)" />
  <g
     inkscape:groupmode="layer"
     id="layer10"
     inkscape:label="devices"
     style="display:inline"
     transform="translate(-415.0004,-168)" />
  <g
     inkscape:groupmode="layer"
     id="layer13"
     inkscape:label="places"
     style="display:inline"
     transform="translate(-415.0004,-168)" />
  <g
     inkscape:groupmode="layer"
     id="layer14"
     inkscape:label="mimes"
     transform="translate(-415.0004,-168)" />
  <g
     inkscape:groupmode="layer"
     id="layer15"
     inkscape:label="emblems"
     style="display:inline"
     transform="translate(-415.0004,-168)" />
  <g
     inkscape:groupmode="layer"
     id="g71291"
     inkscape:label="emotes"
     style="display:inline"
     transform="translate(-415.0004,-168)" />
  <g
     inkscape:groupmode="layer"
     id="layer12"
     inkscape:label="actions"
     style="display:inline"
     transform="translate(-415.0004,-168)">
    <path
       id="path2721"
       d="m 425.70279,175.5 0,-2.44202 -6.074,4.51802 6.07389,4.49995 0,-2.57595 c 3.76636,-0.14511 5.2476,2.19241 2.00033,4.5 5.526,-1.66674 3.59257,-8.31885 -2.00022,-8.5 z"
       style="color:#bebebe;fill:#bebebe"
       inkscape:connector-curvature="0"
       sodipodi:nodetypes="ccccccc" />
    <path
       style="color:#000000;font-style:normal;font-variant:normal;font-weight:normal;font-stretch:normal;font-size:medium;line-height:normal;font-family:sans-serif;text-indent:0;text-align:start;text-decoration:none;text-decoration-line:none;text-decoration-style:solid;text-decoration-color:#000000;letter-spacing:normal;word-spacing:normal;text-transform:none;direction:ltr;block-progression:tb;writing-mode:lr-tb;baseline-shift:baseline;text-anchor:start;white-space:normal;clip-rule:nonzero;display:inline;overflow:visible;visibility:visible;opacity:1;isolation:auto;mix-blend-mode:normal;color-interpolation:sRGB;color-interpolation-filters:linearRGB;solid-color:#000000;solid-opacity:1;fill:#bebebe;fill-opacity:1;fill-rule:nonzero;stroke:none;stroke-width:1;stroke-linecap:butt;stroke-linejoin:miter;stroke-miterlimit:4;stroke-dasharray:none;stroke-dashoffset:0;stroke-opacity:1;color-rendering:auto;image-rendering:auto;shape-rendering:auto;text-rendering:auto;enable-background:accumulate"
       d="M 2 1 L 2 1.5 L 2 15 L 10.271484 15 L 8.921875 14 L 3 14 L 3 9.6152344 L 2.9511719 9.578125 L 3 9.5410156 L 3 2 L 12 2 L 12 6.7480469 C 12.347995 6.8202858 12.680473 6.9146045 13 7.0292969 L 13 1 L 2 1 z M 12 8.7148438 L 12 10.560547 C 12.356255 10.610034 12.68868 10.690562 13 10.794922 L 13 9.109375 C 12.701207 8.9447706 12.362715 8.8173659 12 8.7148438 z M 12 12.691406 L 12 14 L 11.703125 14 L 11.703125 15 L 12.359375 15 C 12.620359 14.795442 12.837944 14.598778 13 14.417969 L 13 12.984375 C 12.751915 12.873379 12.411575 12.77251 12 12.691406 z "
       transform="translate(415.0004,168)"
       id="rect4150" />
  </g>
</svg>

<!-- Created with Inkscape (http://www.inkscape.org/) -->
<svg xmlns="http://www.w3.org/2000/svg" viewBox="0 0 16 16">
 <g transform="translate(-415.0004,-168)" style="display:inline">
  <path d="m 425.7 175.5 0 -2.442 -6.074 4.518 6.074 4.5 0 -2.576 c 3.766 -0.145 5.248 2.192 2 4.5 5.526 -1.667 3.593 -8.319 -2 -8.5 z" style="fill:#bebebe;color:#bebebe"/>
  <path d="m 2 1 l 0 0.5 l 0 13.5 l 8.271 0 l -1.35 -1 l -5.922 0 l 0 -4.385 l -0.049 -0.037 l 0.049 -0.037 l 0 -7.541 l 9 0 l 0 4.748 c 0.348 0.072 0.68 0.167 1 0.281 l 0 -6.03 l -11 0 z m 10 7.715 l 0 1.846 c 0.356 0.049 0.689 0.13 1 0.234 l 0 -1.686 c -0.299 -0.165 -0.637 -0.292 -1 -0.395 z m 0 3.977 l 0 1.309 l -0.297 0 l 0 1 l 0.656 0 c 0.261 -0.205 0.479 -0.401 0.641 -0.582 l 0 -1.434 c -0.248 -0.111 -0.588 -0.212 -1 -0.293 z" transform="translate(415.0004,168)" mix-blend-mode="normal" isolation="auto" white-space="normal" solid-opacity="1" solid-color="#000000" style="visibility:visible;shape-rendering:auto;color-interpolation-filters:linearRGB;fill:#bebebe;opacity:1;image-rendering:auto;fill-opacity:1;stroke:none;color:#000;fill-rule:nonzero;color-rendering:auto;color-interpolation:sRGB"/>
 </g>
</svg>
